icons/jira/jira-original-wordmark.svg

<?xml version="1.0" encoding="UTF-8"?>
<svg xmlns="http://www.w3.org/2000/svg" xmlns:xlink="http://www.w3.org/1999/xlink" width="128px" height="px" viewBox="0 0 128 128" version="1.1">
<defs>
<linearGradient id="linear0" gradientUnits="userSpaceOnUse" x1="22.0343" y1="9.77256" x2="17.1181" y2="14.8424" gradientTransform="matrix(3.908692,0,0,3.908692,1.136138,-13.247334)">
<stop offset="0.176" style="stop-color:rgb(0%,32.156863%,80%);stop-opacity:1;"/>
<stop offset="1" style="stop-color:rgb(14.901961%,51.764706%,100%);stop-opacity:1;"/>
</linearGradient>
<linearGradient id="linear1" gradientUnits="userSpaceOnUse" x1="16.6411" y1="15.5637" x2="10.9568" y2="21.0943" gradientTransform="matrix(3.908692,0,0,3.908692,1.136138,-13.247334)">
<stop offset="0.176" style="stop-color:rgb(0%,32.156863%,80%);stop-opacity:1;"/>
<stop offset="1" style="stop-color:rgb(14.901961%,51.764706%,100%);stop-opacity:1;"/>
</linearGradient>
</defs>
<g id="surface1">
<path style=" stroke:none;fill-rule:nonzero;fill:rgb(14.901961%,51.764706%,100%);fill-opacity:1;" d="M 106.691406 2.386719 L 61.53125 2.386719 C 61.53125 13.644531 70.644531 22.757812 81.898438 22.757812 L 90.207031 22.757812 L 90.207031 30.796875 C 90.207031 42.054688 99.320312 51.167969 110.578125 51.167969 L 110.578125 6.273438 C 110.578125 4.128906 108.835938 2.386719 106.691406 2.386719 Z M 106.691406 2.386719 "/>
<path style=" stroke:none;fill-rule:nonzero;fill:url(#linear0);" d="M 84.3125 24.902344 L 39.152344 24.902344 C 39.152344 36.160156 48.261719 45.269531 59.519531 45.269531 L 67.828125 45.269531 L 67.828125 53.3125 C 67.828125 64.570312 76.941406 73.683594 88.199219 73.683594 L 88.199219 28.789062 C 88.199219 26.644531 86.457031 24.902344 84.3125 24.902344 Z M 84.3125 24.902344 "/>
<path style=" stroke:none;fill-rule:nonzero;fill:url(#linear1);" d="M 61.933594 47.414062 L 16.769531 47.414062 C 16.769531 58.671875 25.882812 67.785156 37.140625 67.785156 L 45.449219 67.785156 L 45.449219 75.828125 C 45.449219 87.082031 54.5625 96.195312 65.820312 96.195312 L 65.820312 51.300781 C 65.820312 49.15625 64.078125 47.414062 61.933594 47.414062 Z M 61.933594 47.414062 "/>
<path style=" stroke:none;fill-rule:nonzero;fill:rgb(14.509804%,21.960784%,34.509804%);fill-opacity:1;" d="M 46 101.242188 L 49.433594 101.242188 L 49.433594 118.222656 C 49.433594 122.703125 47.390625 125.828125 42.648438 125.828125 C 40.867188 125.828125 39.472656 125.53125 38.515625 125.195312 L 38.515625 121.941406 C 39.5625 122.363281 40.824219 122.574219 42.085938 122.574219 C 45 122.574219 46 120.886719 46 118.433594 Z M 46 101.242188 "/>
<path style=" stroke:none;fill-rule:nonzero;fill:rgb(14.509804%,21.960784%,34.509804%);fill-opacity:1;" d="M 55.742188 99.929688 C 57.089844 99.929688 58.046875 100.734375 58.046875 102.167969 C 58.046875 103.5625 57.089844 104.410156 55.742188 104.410156 C 54.394531 104.410156 53.4375 103.605469 53.4375 102.167969 C 53.4375 100.777344 54.394531 99.929688 55.742188 99.929688 Z M 54.046875 107.070312 L 57.351562 107.070312 L 57.351562 125.660156 L 54.046875 125.660156 Z M 54.046875 107.070312 "/>
<path style=" stroke:none;fill-rule:nonzero;fill:rgb(14.509804%,21.960784%,34.509804%);fill-opacity:1;" d="M 65.527344 125.660156 L 62.308594 125.660156 L 62.308594 107.070312 L 65.527344 107.070312 L 65.527344 110.324219 C 66.660156 108.125 68.574219 106.5625 72.3125 106.773438 L 72.3125 109.902344 C 68.09375 109.480469 65.527344 110.703125 65.527344 114.675781 Z M 65.527344 125.660156 "/>
<path style=" stroke:none;fill-rule:nonzero;fill:rgb(14.509804%,21.960784%,34.509804%);fill-opacity:1;" d="M 87.757812 122.320312 C 86.539062 124.773438 84.234375 126.039062 81.273438 126.039062 C 76.1875 126.039062 73.621094 121.855469 73.621094 116.363281 C 73.621094 111.125 76.316406 106.691406 81.667969 106.691406 C 84.449219 106.691406 86.625 107.914062 87.757812 110.324219 L 87.757812 107.070312 L 91.0625 107.070312 L 91.0625 125.660156 L 87.757812 125.660156 Z M 82.144531 123.082031 C 85.101562 123.082031 87.710938 121.265625 87.710938 117.125 L 87.710938 115.648438 C 87.710938 111.507812 85.320312 109.691406 82.492188 109.691406 C 78.796875 109.691406 76.882812 112.054688 76.882812 116.363281 C 76.925781 120.84375 78.753906 123.082031 82.144531 123.082031 Z M 82.144531 123.082031 "/>
</g>
</svg>

<svg xmlns="http://www.w3.org/2000/svg" viewBox="0 0 128 128"><defs><linearGradient id="jira-original-wordmark-a" gradientUnits="userSpaceOnUse" x1="22.034" y1="9.773" x2="17.118" y2="14.842" gradientTransform="translate(1.136 -13.247) scale(3.90869)"><stop offset=".176" stop-color="#0052cc"/><stop offset="1" stop-color="#2684ff"/></linearGradient><linearGradient id="jira-original-wordmark-b" gradientUnits="userSpaceOnUse" x1="16.641" y1="15.564" x2="10.957" y2="21.094" gradientTransform="translate(1.136 -13.247) scale(3.90869)"><stop offset=".176" stop-color="#0052cc"/><stop offset="1" stop-color="#2684ff"/></linearGradient></defs><path d="M106.691 2.387h-45.16c0 11.258 9.114 20.37 20.367 20.37h8.309v8.04c0 11.258 9.113 20.371 20.371 20.371V6.273a3.89 3.89 0 00-3.887-3.886zm0 0" fill="#2684ff"/><path d="M84.313 24.902h-45.16c0 11.258 9.109 20.368 20.367 20.368h8.308v8.042c0 11.258 9.113 20.372 20.371 20.372V28.789a3.89 3.89 0 00-3.886-3.887zm0 0" fill="url(#jira-original-wordmark-a)"/><path d="M61.934 47.414H16.77c0 11.258 9.113 20.371 20.37 20.371h8.31v8.043c0 11.254 9.112 20.367 20.37 20.367V51.301a3.89 3.89 0 00-3.886-3.887zm0 0" fill="url(#jira-original-wordmark-b)"/><path d="M46 101.242h3.434v16.98c0 4.481-2.043 7.606-6.786 7.606-1.78 0-3.175-.297-4.132-.633v-3.254c1.047.422 2.308.633 3.57.633 2.914 0 3.914-1.687 3.914-4.14zm0 0M55.742 99.93c1.348 0 2.305.804 2.305 2.238 0 1.394-.957 2.242-2.305 2.242-1.347 0-2.304-.805-2.304-2.242 0-1.39.957-2.238 2.304-2.238zm-1.695 7.14h3.305v18.59h-3.305zm0 0M65.527 125.66H62.31v-18.59h3.218v3.254c1.133-2.199 3.047-3.761 6.785-3.55v3.128c-4.218-.422-6.785.801-6.785 4.774zm0 0M87.758 122.32c-1.219 2.453-3.524 3.72-6.485 3.72-5.085 0-7.652-4.185-7.652-9.677 0-5.238 2.695-9.672 8.047-9.672 2.781 0 4.957 1.223 6.09 3.633v-3.254h3.305v18.59h-3.305zm-5.613.762c2.957 0 5.566-1.816 5.566-5.957v-1.477c0-4.14-2.39-5.957-5.219-5.957-3.695 0-5.61 2.364-5.61 6.672.044 4.48 1.872 6.719 5.263 6.719zm0 0" fill="#253858"/></svg>
